X: 3887
T: Black Swan On The Turlough
R: jig
M: 6/8
K: Edorian
|:e3 edB|efe edB|AFB EFE|E(3FGA BAF|
e3 edB|egf edB|AFA BAF|EFE E3:|
edB e2a|baf a2f|edB ABd|efg fed|
fga b2a|fed e2f|fed BAF|EFE E3|
edB e2f|gba f2e|dBA F2E|FAA BAF|
Bcd e2f|gba b2a|fed BAF|EFE E3|
|:Bed B2A|Bed B2A|Bed Bed|Bed B2A|FAA BAA|
[1FAA B2A|FEE EBA|FEE E3:|2 FEE E2F|A2F B2A|FEE E3||

